X:161
T:Jenny's Chickens
Z: id:dc-reel-148
M:C
L:1/8
K:F# Minor
f2ae fece|f2ae fece|f2ae fece|fgaf eAce:|!
K:B Minor
fBBA B3e|fBB2 eAce|fBBA B3e|fgaf eAce|!
fBBB gBBB|aBBB bBBB|fBBA B3e|fgaf eAce|]!
BBbB aBgB|BBaf eAce|BBbB aBgB|fgaf eAce:|!

